X: 3169
T: The KAIL POT
C: Jos Lowe
Q: "Strathspey."
R: Strathspey.
%R: strathspey
B: James Kerr "Merry Melodies" v.3 p.20 #169
Z: 2016 John Chambers <jc:trillian.mit.edu>
M: C
L: 1/8
K: Dm
uA |\
vD>vEuF>uG A<A d>ue | f>ed>f e<A- A>^c |\
d>=cB>A B>AG>F | (3EFG (3AGA F<D-D :|
|: A |\
d>^cd>e f>ed>e | f>ef>a g<c- c>e |\
f>ef>a g>fe>g | (3fed (3^cde | d<D-D :|

%%sep 1 1 500
%%sep 1 1 500

